svgs/light/square-n.svg

<svg xmlns="http://www.w3.org/2000/svg" viewBox="0 0 448 512"><!-- Font Awesome Pro 6.0.0-alpha2 by @fontawesome - https://fontawesome.com License - https://fontawesome.com/license (Commercial License) --><path d="M384 32H64C28.654 32 0 60.654 0 96V416C0 451.346 28.654 480 64 480H384C419.346 480 448 451.346 448 416V96C448 60.654 419.346 32 384 32ZM416 416C416 433.645 401.645 448 384 448H64C46.355 448 32 433.645 32 416V96C32 78.355 46.355 64 64 64H384C401.645 64 416 78.355 416 96V416ZM320 128C311.156 128 304 135.156 304 144V324.75L140.141 133.594C135.766 128.469 128.703 126.641 122.453 129C116.172 131.312 112 137.297 112 144V368C112 376.844 119.156 384 128 384S144 376.844 144 368V187.25L307.859 378.406C310.953 382.031 315.422 384 320 384C321.859 384 323.734 383.672 325.547 383C331.828 380.688 336 374.703 336 368V144C336 135.156 328.844 128 320 128Z"/></svg>

<svg xmlns="http://www.w3.org/2000/svg" viewBox="0 0 448 512"><!--! Font Awesome Pro 6.3.0 by @fontawesome - https://fontawesome.com License - https://fontawesome.com/license (Commercial License) Copyright 2023 Fonticons, Inc. --><path d="M384 32H64C28.65 32 0 60.65 0 96v320c0 35.35 28.65 64 64 64h320c35.35 0 64-28.65 64-64V96C448 60.65 419.3 32 384 32zM416 416c0 17.64-14.36 32-32 32H64c-17.64 0-32-14.36-32-32V96c0-17.64 14.36-32 32-32h320c17.64 0 32 14.36 32 32V416zM320 128c-8.844 0-16 7.156-16 16v180.8L140.1 133.6C135.8 128.5 128.7 126.6 122.5 129C116.2 131.3 112 137.3 112 144v224C112 376.8 119.2 384 128 384s16-7.156 16-16V187.3l163.9 191.2C310.1 382 315.4 384 320 384c1.859 0 3.734-.3281 5.547-1C331.8 380.7 336 374.7 336 368v-224C336 135.2 328.8 128 320 128z"/></svg>
